src/icons/userfollow.svg

<svg width="27" height="27" viewBox="0 0 27 27" fill="none" xmlns="http://www.w3.org/2000/svg">
<g clip-path="url(#clip0)">
<g filter="url(#filter0_d)">
<path d="M5.2955 21.375L7.71025 18.9602C7.92992 18.7406 7.92992 18.3844 7.71025 18.1648C7.49058 17.9451 7.13442 17.9451 6.91475 18.1648L3.53975 21.5398C3.32008 21.7594 3.32008 22.1156 3.53975 22.3352L6.91475 25.7102C7.13442 25.9299 7.49058 25.9299 7.71025 25.7102C7.92992 25.4906 7.92992 25.1344 7.71025 24.9148L5.2955 22.5H10.6875C10.9982 22.5 11.25 22.2482 11.25 21.9375C11.25 21.6268 10.9982 21.375 10.6875 21.375H5.2955ZM11.2022 15.2608C11.9037 15.5752 12.6815 15.75 13.5 15.75C14.3169 15.75 15.0931 15.5759 15.7936 15.2627L20.3858 17.3501C20.9882 17.6239 21.375 18.2246 21.375 18.8863V19.6875C21.375 20.6195 20.6195 21.375 19.6875 21.375H14.0625C13.7518 21.375 13.5 21.6268 13.5 21.9375C13.5 22.2482 13.7518 22.5 14.0625 22.5H19.6875C21.2408 22.5 22.5 21.2408 22.5 19.6875V18.8863C22.5 17.7834 21.8554 16.7823 20.8513 16.3259L16.9626 14.5583C18.2789 13.5287 19.125 11.9257 19.125 10.125C19.125 7.0184 16.6066 4.5 13.5 4.5C10.3934 4.5 7.875 7.0184 7.875 10.125C7.875 11.917 8.71301 13.5133 10.0185 14.5434L7.09131 15.7953C6.80568 15.9175 6.67315 16.2481 6.79531 16.5337C6.91747 16.8193 7.24805 16.9518 7.53369 16.8297L11.2022 15.2608ZM13.5 14.625C11.0147 14.625 9 12.6103 9 10.125C9 7.63972 11.0147 5.625 13.5 5.625C15.9853 5.625 18 7.63972 18 10.125C18 12.6103 15.9853 14.625 13.5 14.625Z" fill="#7C7474"/>
<path d="M7.81631 19.0663L5.65763 21.225H10.6875C11.081 21.225 11.4 21.544 11.4 21.9375C11.4 22.331 11.081 22.65 10.6875 22.65H5.65763L7.81631 24.8087C8.09456 25.0869 8.09456 25.5381 7.81631 25.8163C7.53806 26.0946 7.08694 26.0946 6.80869 25.8163L3.43369 22.4413C3.15544 22.1631 3.15544 21.7119 3.43369 21.4337L6.80869 18.0587C7.08694 17.7804 7.53806 17.7804 7.81631 18.0587C8.09456 18.3369 8.09456 18.7881 7.81631 19.0663ZM13.5 15.9C12.6833 15.9 11.9059 15.7304 11.2012 15.4243L7.59267 16.9676C7.23086 17.1223 6.81213 16.9545 6.6574 16.5927C6.50266 16.2309 6.67053 15.8121 7.03233 15.6574L9.73302 14.5024C8.5037 13.4435 7.725 11.8752 7.725 10.125C7.725 6.93556 10.3106 4.35 13.5 4.35C16.6894 4.35 19.275 6.93556 19.275 10.125C19.275 11.8858 18.4868 13.4626 17.2445 14.5217L20.9134 16.1893C21.971 16.6701 22.65 17.7246 22.65 18.8863V19.6875C22.65 21.3236 21.3236 22.65 19.6875 22.65H14.0625C13.669 22.65 13.35 22.331 13.35 21.9375C13.35 21.544 13.669 21.225 14.0625 21.225H19.6875C20.5366 21.225 21.225 20.5366 21.225 19.6875V18.8863C21.225 18.2834 20.8726 17.7361 20.3237 17.4866L15.7926 15.427C15.0896 15.7314 14.3143 15.9 13.5 15.9ZM9.15 10.125C9.15 12.5274 11.0976 14.475 13.5 14.475C15.9024 14.475 17.85 12.5274 17.85 10.125C17.85 7.72256 15.9024 5.775 13.5 5.775C11.0976 5.775 9.15 7.72256 9.15 10.125Z" stroke="#7C7474" stroke-width="0.3"/>
</g>
</g>
<defs>
<filter id="filter0_d" x="-0.924805" y="4.2" width="27.725" height="29.975" filterUnits="userSpaceOnUse" color-interpolation-filters="sRGB">
<feFlood flood-opacity="0" result="BackgroundImageFix"/>
<feColorMatrix in="SourceAlpha" type="matrix" values="0 0 0 0 0 0 0 0 0 0 0 0 0 0 0 0 0 0 127 0"/>
<feOffset dy="4"/>
<feGaussianBlur stdDeviation="2"/>
<feColorMatrix type="matrix" values="0 0 0 0 0 0 0 0 0 0 0 0 0 0 0 0 0 0 0.25 0"/>
<feBlend mode="normal" in2="BackgroundImageFix" result="effect1_dropShadow"/>
<feBlend mode="normal" in="SourceGraphic" in2="effect1_dropShadow" result="shape"/>
</filter>
<clipPath id="clip0">
<rect width="27" height="27" fill="white" transform="matrix(-1 0 0 1 27 0)"/>
</clipPath>
</defs>
</svg>

<?xml version="1.0" encoding="utf-8"?>
<!-- Generator: Adobe Illustrator 25.1.0, SVG Export Plug-In . SVG Version: 6.00 Build 0)  -->
<svg version="1.1" id="Слой_1" xmlns="http://www.w3.org/2000/svg" xmlns:xlink="http://www.w3.org/1999/xlink" x="0px" y="0px"
	 viewBox="0 0 27 27" enable-background="new 0 0 27 27" xml:space="preserve">
<g>
	<defs>
		<rect id="SVGID_1_" width="27" height="27"/>
	</defs>
	<clipPath id="SVGID_2_">
		<use xlink:href="#SVGID_1_"  overflow="visible"/>
	</clipPath>
	<g clip-path="url(#SVGID_2_)">
		<g>
			<path fill="#7C7474" d="M5.3,21.4L7.7,19c0.2-0.2,0.2-0.6,0-0.8c-0.2-0.2-0.6-0.2-0.8,0l-3.4,3.4c-0.2,0.2-0.2,0.6,0,0.8l3.4,3.4
				c0.2,0.2,0.6,0.2,0.8,0c0.2-0.2,0.2-0.6,0-0.8l-2.4-2.4h5.4c0.3,0,0.6-0.3,0.6-0.6s-0.3-0.6-0.6-0.6H5.3z M11.2,15.3
				c0.7,0.3,1.5,0.5,2.3,0.5c0.8,0,1.6-0.2,2.3-0.5l4.6,2.1c0.6,0.3,1,0.9,1,1.5v0.8c0,0.9-0.8,1.7-1.7,1.7h-5.6
				c-0.3,0-0.6,0.3-0.6,0.6s0.3,0.6,0.6,0.6h5.6c1.6,0,2.8-1.3,2.8-2.8v-0.8c0-1.1-0.6-2.1-1.6-2.6L17,14.6c1.3-1,2.2-2.6,2.2-4.4
				c0-3.1-2.5-5.6-5.6-5.6S7.9,7,7.9,10.1c0,1.8,0.8,3.4,2.1,4.4l-2.9,1.3c-0.3,0.1-0.4,0.5-0.3,0.7c0.1,0.3,0.5,0.4,0.7,0.3
				L11.2,15.3z M13.5,14.6c-2.5,0-4.5-2-4.5-4.5c0-2.5,2-4.5,4.5-4.5s4.5,2,4.5,4.5C18,12.6,16,14.6,13.5,14.6z"/>
			<defs>
				<filter id="Adobe_OpacityMaskFilter" filterUnits="userSpaceOnUse" x="3.1" y="4.2" width="19.7" height="22">
					<feColorMatrix  type="matrix" values="1 0 0 0 0  0 1 0 0 0  0 0 1 0 0  0 0 0 1 0"/>
				</filter>
			</defs>
			<mask maskUnits="userSpaceOnUse" x="3.1" y="4.2" width="19.7" height="22" id="path-1-outside-1_1_">
				<rect x="2.5" y="3.5" fill="#FFFFFF" filter="url(#Adobe_OpacityMaskFilter)" width="21" height="23"/>
				<path d="M5.3,21.4L7.7,19c0.2-0.2,0.2-0.6,0-0.8c-0.2-0.2-0.6-0.2-0.8,0l-3.4,3.4c-0.2,0.2-0.2,0.6,0,0.8l3.4,3.4
					c0.2,0.2,0.6,0.2,0.8,0c0.2-0.2,0.2-0.6,0-0.8l-2.4-2.4h5.4c0.3,0,0.6-0.3,0.6-0.6s-0.3-0.6-0.6-0.6H5.3z M11.2,15.3
					c0.7,0.3,1.5,0.5,2.3,0.5c0.8,0,1.6-0.2,2.3-0.5l4.6,2.1c0.6,0.3,1,0.9,1,1.5v0.8c0,0.9-0.8,1.7-1.7,1.7h-5.6
					c-0.3,0-0.6,0.3-0.6,0.6s0.3,0.6,0.6,0.6h5.6c1.6,0,2.8-1.3,2.8-2.8v-0.8c0-1.1-0.6-2.1-1.6-2.6L17,14.6c1.3-1,2.2-2.6,2.2-4.4
					c0-3.1-2.5-5.6-5.6-5.6S7.9,7,7.9,10.1c0,1.8,0.8,3.4,2.1,4.4l-2.9,1.3c-0.3,0.1-0.4,0.5-0.3,0.7c0.1,0.3,0.5,0.4,0.7,0.3
					L11.2,15.3z M13.5,14.6c-2.5,0-4.5-2-4.5-4.5c0-2.5,2-4.5,4.5-4.5s4.5,2,4.5,4.5C18,12.6,16,14.6,13.5,14.6z"/>
			</mask>
			<path mask="url(#path-1-outside-1_1_)" fill="none" stroke="#7C7474" stroke-width="0.6" d="M5.3,21.4L7.7,19
				c0.2-0.2,0.2-0.6,0-0.8c-0.2-0.2-0.6-0.2-0.8,0l-3.4,3.4c-0.2,0.2-0.2,0.6,0,0.8l3.4,3.4c0.2,0.2,0.6,0.2,0.8,0
				c0.2-0.2,0.2-0.6,0-0.8l-2.4-2.4h5.4c0.3,0,0.6-0.3,0.6-0.6s-0.3-0.6-0.6-0.6H5.3z M11.2,15.3c0.7,0.3,1.5,0.5,2.3,0.5
				c0.8,0,1.6-0.2,2.3-0.5l4.6,2.1c0.6,0.3,1,0.9,1,1.5v0.8c0,0.9-0.8,1.7-1.7,1.7h-5.6c-0.3,0-0.6,0.3-0.6,0.6s0.3,0.6,0.6,0.6h5.6
				c1.6,0,2.8-1.3,2.8-2.8v-0.8c0-1.1-0.6-2.1-1.6-2.6L17,14.6c1.3-1,2.2-2.6,2.2-4.4c0-3.1-2.5-5.6-5.6-5.6S7.9,7,7.9,10.1
				c0,1.8,0.8,3.4,2.1,4.4l-2.9,1.3c-0.3,0.1-0.4,0.5-0.3,0.7c0.1,0.3,0.5,0.4,0.7,0.3L11.2,15.3z M13.5,14.6c-2.5,0-4.5-2-4.5-4.5
				c0-2.5,2-4.5,4.5-4.5s4.5,2,4.5,4.5C18,12.6,16,14.6,13.5,14.6z"/>
		</g>
	</g>
</g>
</svg>
